X: 142106
Q: "Hornpipe."
M: C
L: 1/8
K: G
(B>c) |\
d>gf>e d>cB>A | G>BD>G B2(A>G) |\
d>gf>e d>cB>A | G>BD>G B2(A>G) |\
(A>G) |\
d>gf>e d>cB>A | G>BD>G B2(A>G) |\


